icon/lg/tidal-icon.svg

<?xml version="1.0" encoding="UTF-8"?>
<svg viewBox="0 0 256 171" version="1.1" xmlns="http://www.w3.org/2000/svg" xmlns:xlink="http://www.w3.org/1999/xlink" preserveAspectRatio="xMidYMid" height="1em" width="1em">
  <g>
    <path d="M128.003612,85.338752 L170.668473,128.009031 L128.003612,170.675698 L85.3351396,128.009031 L128.003612,85.338752 Z M42.6666667,0.00180622583 L85.3351396,42.6702791 L42.6666667,85.3405582 L0,42.6702791 L42.6666667,0.00180622583 Z M213.333333,0.00180622583 L256,42.6702791 L213.333333,85.3405582 L170.666667,42.6702791 L128.003612,85.338752 L85.3351396,42.6684729 L128.003612,-2.84217094e-14 L170.666667,42.6648604 L213.333333,0.00180622583 Z" fill="#0A0B09"/>
  </g>
</svg>

<svg width="256" height="171" xmlns="http://www.w3.org/2000/svg" preserveAspectRatio="xMidYMid"><path d="m128.004 85.339 42.664 42.67-42.664 42.667-42.669-42.667 42.669-42.67ZM42.667.002 85.335 42.67 42.667 85.34 0 42.67 42.667.002Zm170.666 0L256 42.67l-42.667 42.67-42.666-42.67-42.663 42.669-42.669-42.67L128.004 0l42.663 42.665L213.333.002Z" fill="#0A0B09"/></svg>
